layers-triple.svg

<svg fill="currentColor" viewBox="0 0 24 24"><path d="M12 0 3 7l1.63 1.27L12 14l7.36-5.73L21 7zm7.37 10.73L12 16.47l-7.38-5.73L3 12l9 7 9-7zm0 5L12 21.47l-7.38-5.73L3 17l9 7 9-7z"/></svg>

<svg  viewBox="0 0 24 24" fill="currentColor"><path  d="M12 0L3 7L4.63 8.27L12 14L19.36 8.27L21 7L12 0M19.37 10.73L12 16.47L4.62 10.74L3 12L12 19L21 12L19.37 10.73M19.37 15.73L12 21.47L4.62 15.74L3 17L12 24L21 17L19.37 15.73Z"/></svg>
